X:305
T:Balloon. RH.305
R:march
S:Rev.R.Harrison’s MS,c1815,Cumbria
N:Sounds like people were playing polkas before the
N:dance was invented. PJH.
O:England
A:Temple Sowerby,Cumbria
Z:vmp.Simon Wilson.
M:C|
L:1/8
Q:1/2=70
K:G
d>edc Bdgb|agab ageg|d>edc Bdgb|a>gab g<gg2:|\
bgbg c’abg|agfe defd|!
bgbg c’abg|gf de/f/ g3a|\
bgbg c’abg|agfe defd|egfa gbac’|bgaf g>dcB|]

